X: 3
T: The Seven Step
R: barndance
M: 4/4
L: 1/8
K: Gmaj
(3DEF |\ G2 G2 G2 G2 | GABG E2 D2 | B2 B2 B2 B2 | BcdB A2 G2 ||
|: BcdB G2 G2 | GABG E2 D2 | DEGA BddB |[1 B2A2 A4 :|[2 A2 G2 G2 |]


Tune 1307	Setting 14631

